Numix/32/mimetypes/application-x-jar.svg

<?xml version="1.0" encoding="UTF-8" standalone="no"?>
<svg
   xmlns:dc="http://purl.org/dc/elements/1.1/"
   xmlns:cc="http://creativecommons.org/ns#"
   xmlns:rdf="http://www.w3.org/1999/02/22-rdf-syntax-ns#"
   xmlns:svg="http://www.w3.org/2000/svg"
   xmlns="http://www.w3.org/2000/svg"
   xmlns:sodipodi="http://sodipodi.sourceforge.net/DTD/sodipodi-0.dtd"
   xmlns:inkscape="http://www.inkscape.org/namespaces/inkscape"
   width="32"
   height="32"
   viewBox="0 0 32 32"
   id="svg2"
   version="1.1"
   inkscape:version="0.91 r13725"
   sodipodi:docname="application-x-jar.svg">
  <metadata
     id="metadata42">
    <rdf:RDF>
      <cc:Work
         rdf:about="">
        <dc:format>image/svg+xml</dc:format>
        <dc:type
           rdf:resource="http://purl.org/dc/dcmitype/StillImage" />
      </cc:Work>
    </rdf:RDF>
  </metadata>
  <defs
     id="defs40" />
  <sodipodi:namedview
     pagecolor="#ffffff"
     bordercolor="#666666"
     borderopacity="1"
     objecttolerance="10"
     gridtolerance="10"
     guidetolerance="10"
     inkscape:pageopacity="0"
     inkscape:pageshadow="2"
     inkscape:window-width="1366"
     inkscape:window-height="704"
     id="namedview38"
     showgrid="false"
     inkscape:zoom="1"
     inkscape:cx="13.624567"
     inkscape:cy="2.8422926"
     inkscape:window-x="0"
     inkscape:window-y="27"
     inkscape:window-maximized="1"
     inkscape:current-layer="svg2">
    <inkscape:grid
       type="xygrid"
       id="grid3048" />
  </sodipodi:namedview>
  <path
     style="fill:#e66f00;fill-opacity:1"
     d="M 5.335888,2.971e-4 C 4.648414,3.121e-4 4,0.6767881 4,1.3940318 L 4,30.606268 C 4,31.282757 4.687474,32 5.335888,32 l 21.327332,0 c 0.648414,0 1.335888,-0.717243 1.335888,-1.393732 L 28,9 19,1e-7 z"
     id="path4-1"
     inkscape:connector-curvature="0"
     sodipodi:nodetypes="ssssssccs" />
  <path
     style="fill:#000000;fill-opacity:0.19599998"
     d="m 21,9 7,7 0,-7 z"
     id="path6-4"
     inkscape:connector-curvature="0"
     sodipodi:nodetypes="cccc" />
  <path
     style="fill:#ffffff;fill-opacity:0.39200003"
     d="M 19.000306,2.971e-4 27.9919,9 20.378638,9 C 19.705687,9 19.000306,8.286511 19.000306,7.61356 z"
     id="path8-6"
     inkscape:connector-curvature="0"
     sodipodi:nodetypes="ccssc" />
  <g
     style="fill:#ffffff;fill-rule:evenodd"
     id="g10-5"
     transform="matrix(1.3019455,0,0,1.3019455,-33.655593,1.3634433)">
    <path
       d="m 14.339844,19.945312 c 0,0 -0.484375,0.269532 0.34375,0.359376 1.003906,0.109374 1.515625,0.09375 2.621094,-0.105469 0,0 0.289062,0.171875 0.695312,0.320312 -2.476562,1.007813 -5.605469,-0.05859 -3.660156,-0.574219"
       id="path12-6"
       inkscape:connector-curvature="0" />
    <path
       d="m 14.035156,18.632812 c 0,0 -0.542968,0.382813 0.285156,0.460938 1.074219,0.105469 1.917969,0.113281 3.382813,-0.152344 0,0 0.203125,0.195313 0.519531,0.300782 -2.992187,0.832031 -6.332031,0.06641 -4.1875,-0.609376"
       id="path14-7"
       inkscape:connector-curvature="0" />
    <path
       d="m 16.589844,16.40625 c 0.609375,0.664062 -0.164063,1.265625 -0.164063,1.265625 0,0 1.550781,-0.761719 0.839844,-1.710937 -0.664063,-0.886719 -1.175781,-1.324219 1.585937,-2.84375 0,0 -4.332031,1.027343 -2.261718,3.289062"
       id="path16-7"
       inkscape:connector-curvature="0" />
    <path
       d="m 19.863281,20.917969 c 0,0 0.359375,0.28125 -0.394531,0.496093 -1.429688,0.410157 -5.949219,0.535157 -7.207031,0.01563 -0.449219,-0.183594 0.394531,-0.445313 0.664062,-0.496094 0.277344,-0.05859 0.433594,-0.04687 0.433594,-0.04687 -0.5,-0.335938 -3.246094,0.65625 -1.390625,0.941406 5.050781,0.777344 9.207031,-0.347656 7.894531,-0.910156"
       id="path18-0"
       inkscape:connector-curvature="0" />
    <path
       d="m 14.570312,17.273438 c 0,0 -2.300781,0.515624 -0.8125,0.703124 0.625,0.08203 1.875,0.0625 3.042969,-0.03125 0.949219,-0.07422 1.90625,-0.234374 1.90625,-0.234374 0,0 -0.335937,0.132812 -0.578125,0.292968 -2.335937,0.582032 -6.847656,0.308594 -5.550781,-0.285156 1.101563,-0.503906 1.992187,-0.445312 1.992187,-0.445312"
       id="path20-0"
       inkscape:connector-curvature="0" />
    <path
       d="m 18.695312,19.457031 c 2.375,-1.167969 1.277344,-2.292969 0.511719,-2.140625 -0.1875,0.03516 -0.269531,0.07031 -0.269531,0.07031 0,0 0.06641,-0.105469 0.203125,-0.148438 1.515625,-0.507812 2.679687,1.488281 -0.492187,2.28125 0,0 0.03906,-0.03125 0.04687,-0.0625"
       id="path22-0"
       inkscape:connector-curvature="0" />
    <path
       d="m 17.265625,10.667969 c 0,0 1.316406,1.246093 -1.246094,3.164062 -2.054687,1.539063 -0.46875,2.414063 0,3.417969 -1.199219,-1.027344 -2.082031,-1.929688 -1.492187,-2.769531 0.867187,-1.234375 3.269531,-1.832031 2.738281,-3.8125"
       id="path24-9"
       inkscape:connector-curvature="0" />
    <path
       d="m 14.804688,22.628906 c 2.277343,0.136719 5.777343,-0.07813 5.863281,-1.097656 0,0 -0.160157,0.386719 -1.886719,0.695312 -1.945312,0.34375 -4.34375,0.304688 -5.765625,0.08203 0,0 0.292969,0.230468 1.789063,0.320312"
       id="path26-1"
       inkscape:connector-curvature="0" />
  </g>
  <g
     style="fill:#fff;fill-rule:evenodd"
     id="g10">
    <path
       d="M 14.339844 19.28125 C 14.339844 19.28125 13.855469 19.546875 14.683594 19.636719 C 15.6875 19.746094 16.199219 19.730469 17.304688 19.53125 C 17.304688 19.53125 17.59375 19.703125 18 19.855469 C 15.523438 20.859375 12.394531 19.796875 14.339844 19.28125 "
       id="path12" />
    <path
       d="M 14.035156 17.964844 C 14.035156 17.964844 13.492188 18.347656 14.320312 18.429688 C 15.394531 18.535156 16.238281 18.542969 17.703125 18.273438 C 17.703125 18.273438 17.90625 18.46875 18.222656 18.574219 C 15.230469 19.40625 11.890625 18.640625 14.035156 17.964844 "
       id="path14" />
    <path
       d="M 16.589844 15.738281 C 17.199219 16.402344 16.425781 17.003906 16.425781 17.003906 C 16.425781 17.003906 17.976562 16.246094 17.265625 15.296875 C 16.601562 14.410156 16.089844 13.96875 18.851562 12.449219 C 18.851562 12.449219 14.519531 13.476562 16.589844 15.738281 "
       id="path16" />
    <path
       d="M 19.863281 20.253906 C 19.863281 20.253906 20.222656 20.53125 19.46875 20.746094 C 18.039062 21.160156 13.519531 21.28125 12.261719 20.765625 C 11.8125 20.578125 12.65625 20.320312 12.925781 20.265625 C 13.203125 20.207031 13.359375 20.21875 13.359375 20.21875 C 12.859375 19.882812 10.113281 20.878906 11.96875 21.164062 C 17.019531 21.9375 21.175781 20.8125 19.863281 20.253906 "
       id="path18" />
    <path
       d="M 14.570312 16.605469 C 14.570312 16.605469 12.269531 17.125 13.757812 17.3125 C 14.382812 17.390625 15.632812 17.371094 16.800781 17.28125 C 17.75 17.203125 18.707031 17.042969 18.707031 17.042969 C 18.707031 17.042969 18.371094 17.179688 18.128906 17.335938 C 15.792969 17.917969 11.28125 17.648438 12.578125 17.050781 C 13.679688 16.546875 14.570312 16.605469 14.570312 16.605469 "
       id="path20" />
    <path
       d="M 18.695312 18.792969 C 21.070312 17.621094 19.972656 16.496094 19.207031 16.648438 C 19.019531 16.6875 18.9375 16.71875 18.9375 16.71875 C 18.9375 16.71875 19.003906 16.613281 19.140625 16.570312 C 20.65625 16.066406 21.820312 18.0625 18.648438 18.851562 C 18.648438 18.851562 18.6875 18.820312 18.695312 18.792969 "
       id="path22" />
    <path
       d="M 17.265625 10 C 17.265625 10 18.582031 11.246094 16.019531 13.164062 C 13.964844 14.703125 15.550781 15.582031 16.019531 16.582031 C 14.820312 15.558594 13.9375 14.652344 14.527344 13.8125 C 15.394531 12.578125 17.796875 11.980469 17.265625 10 "
       id="path24" />
    <path
       d="M 14.804688 21.960938 C 17.082031 22.101562 20.582031 21.886719 20.667969 20.863281 C 20.667969 20.863281 20.507812 21.25 18.78125 21.558594 C 16.835938 21.90625 14.4375 21.863281 13.015625 21.644531 C 13.015625 21.640625 13.308594 21.871094 14.804688 21.960938 "
       id="path26" />
  </g>
  <path
     style="fill:#000000;fill-opacity:0.19599998"
     d="m 4,24 0,6.667969 C 4,31.316407 4.6875,32 5.332031,32 l 21.335938,0 C 27.3125,32 28,31.316407 28,30.667969 L 28,24 z"
     id="path28"
     inkscape:connector-curvature="0" />
  <g
     style="fill:#ffffff"
     id="g30"
     transform="matrix(1.089106,0,0,1.089106,-1.188863,-1.5628027)">
    <path
       d="m 13.101446,28.040521 c 0,0.265525 -0.03539,0.518604 -0.110103,0.755087 -0.06685,0.232335 -0.184817,0.439776 -0.353905,0.618176 -0.15729,0.1784 -0.369632,0.31946 -0.629162,0.427331 -0.259529,0.09957 -0.574111,0.149357 -0.947676,0.149357 -0.389295,0 -0.71174,-0.04564 -0.971271,-0.141059 -0.2595288,-0.09543 -0.4797358,-0.211591 -0.6606205,-0.348504 l 0.4364818,-0.867105 c 0.1572907,0.09541 0.3263787,0.186698 0.5111957,0.273824 0.192681,0.09128 0.385361,0.132762 0.585907,0.132762 0.294921,0 0.534788,-0.07054 0.71174,-0.219888 0.184817,-0.153507 0.279191,-0.435628 0.279191,-0.842213 l 0,-2.684295 -1.918946,0 0,-0.904446 3.067168,0 0,3.650973"
       id="path32"
       inkscape:connector-curvature="0" />
    <path
       d="m 16.863853,29.890625 -0.289749,-1.087636 -1.633511,0 -0.277152,1.087636 -1.268176,0 c 0.50889,-1.91264 1.136409,-3.756714 1.742691,-5.509106 l 1.326969,0 c 0.664746,1.865257 1.248875,3.753566 1.704898,5.509106 l -1.30597,0 m -1.091807,-4.44229 c -0.26294,0.757317 -0.443817,1.698658 -0.604693,2.446193 l 1.200987,0 c -0.144774,-0.779902 -0.374198,-1.720627 -0.596294,-2.446193"
       id="path34"
       inkscape:connector-curvature="0"
       sodipodi:nodetypes="ccccccccccccc" />
    <path
       d="m 20.025811,24.289705 c 0.320882,0 0.614701,0.03351 0.873725,0.104734 0.262891,0.07122 0.487121,0.184323 0.676557,0.330944 0.189436,0.15081 0.332479,0.343511 0.42913,0.573917 0.104383,0.226214 0.154642,0.49432 0.154642,0.80432 0,0.322565 -0.06573,0.634455 -0.201033,0.898373 -0.135312,0.259728 -0.355677,0.460808 -0.66496,0.59905 0.505905,0.731873 0.877771,1.498633 1.240999,2.289586 l -1.179142,0 C 21.066642,29.148025 20.648312,28.49988 20.273238,27.86915 l -0.652684,0 0,2.021479 -1.052239,0 0,-5.458488 c 0.378779,-0.09288 0.76021,-0.103052 1.136616,-0.13406 0.123713,-0.0083 0.228095,-0.0083 0.32088,-0.0083 m 0.993573,1.805531 c 0,-0.293241 -0.09278,-0.506889 -0.274489,-0.645132 -0.181704,-0.134053 -0.421398,-0.205269 -0.719084,-0.205269 -0.116672,-0.0027 -0.295582,0.01971 -0.405257,0.02924 l 0,1.681747 0.312472,0 c 0.382738,0 0.661093,-0.07122 0.831199,-0.213647 0.170106,-0.15081 0.255159,-0.378916 0.255159,-0.647023"
       id="path36"
       inkscape:connector-curvature="0"
       sodipodi:nodetypes="ccccsccccccccccccccccscc" />
  </g>
</svg>

<svg xmlns="http://www.w3.org/2000/svg" viewBox="0 0 32 32">
 <path d="m 5.336 0 c -0.687 0 -1.336 0.676 -1.336 1.394 l 0 29.21 c 0 0.676 0.687 1.394 1.336 1.394 l 21.327 0 c 0.648 0 1.336 -0.717 1.336 -1.394 l 0.001 -21.606 -9 -9 z" style="fill:#e66f00;fill-opacity:1"/>
 <path d="m 21 9 7 7 0 -7 z" style="fill:#000;fill-opacity:0.196"/>
 <path d="m 19 0 8.992 9 -7.613 0 c -0.673 0 -1.378 -0.713 -1.378 -1.386 z" style="fill:#fff;fill-opacity:0.392"/>
 <g transform="matrix(1.3019455,0,0,1.3019455,-33.655593,1.3634433)" style="fill:#fff;fill-rule:evenodd"/>
 <g style="fill:#fff;fill-rule:evenodd">
  <path d="m 14.34 19.281 c 0 0 -0.484 0.266 0.344 0.355 c 1 0.109 1.516 0.094 2.621 -0.105 c 0 0 0.289 0.172 0.695 0.324 c -2.477 1 -5.605 -0.059 -3.66 -0.574"/>
  <path d="m 14.04 17.965 c 0 0 -0.543 0.383 0.285 0.465 c 1.074 0.105 1.918 0.113 3.383 -0.156 c 0 0 0.203 0.195 0.52 0.301 c -2.992 0.832 -6.332 0.066 -4.188 -0.609"/>
  <path d="m 16.59 15.738 c 0.609 0.664 -0.164 1.266 -0.164 1.266 c 0 0 1.551 -0.758 0.84 -1.707 c -0.664 -0.887 -1.176 -1.328 1.586 -2.848 c 0 0 -4.332 1.027 -2.262 3.289"/>
  <path d="m 19.863 20.254 c 0 0 0.359 0.277 -0.395 0.492 c -1.43 0.414 -5.949 0.535 -7.207 0.02 c -0.449 -0.188 0.395 -0.445 0.664 -0.5 c 0.277 -0.059 0.434 -0.047 0.434 -0.047 c -0.5 -0.336 -3.246 0.66 -1.391 0.945 c 5.05 0.773 9.207 -0.352 7.895 -0.91"/>
  <path d="m 14.57 16.605 c 0 0 -2.301 0.52 -0.813 0.707 c 0.625 0.078 1.875 0.059 3.043 -0.031 c 0.949 -0.078 1.906 -0.238 1.906 -0.238 c 0 0 -0.336 0.137 -0.578 0.293 c -2.336 0.582 -6.848 0.313 -5.551 -0.285 c 1.102 -0.504 1.992 -0.445 1.992 -0.445"/>
  <path d="m 18.695 18.793 c 2.375 -1.172 1.277 -2.297 0.512 -2.145 c -0.188 0.039 -0.27 0.07 -0.27 0.07 c 0 0 0.066 -0.105 0.203 -0.148 c 1.516 -0.504 2.68 1.492 -0.492 2.281 c 0 0 0.039 -0.031 0.047 -0.059"/>
  <path d="m 17.266 10 c 0 0 1.316 1.246 -1.246 3.164 c -2.055 1.539 -0.469 2.418 0 3.418 c -1.199 -1.023 -2.082 -1.93 -1.492 -2.77 c 0.867 -1.234 3.27 -1.832 2.738 -3.813"/>
  <path d="m 14.805 21.961 c 2.277 0.141 5.777 -0.074 5.863 -1.098 c 0 0 -0.16 0.387 -1.887 0.695 c -1.945 0.348 -4.344 0.305 -5.766 0.086 c 0 -0.004 0.293 0.227 1.789 0.316"/>
 </g>
 <path d="m 4 24 0 6.668 c 0 0.648 0.688 1.332 1.332 1.332 l 21.336 0 c 0.645 0 1.332 -0.684 1.332 -1.332 l 0 -6.668 z" style="fill:#000;fill-opacity:0.196"/>
 <g transform="matrix(1.089106,0,0,1.089106,-1.188863,-1.5628027)" style="fill:#fff">
  <path d="m 13.1 28.04 c 0 0.266 -0.035 0.519 -0.11 0.755 -0.067 0.232 -0.185 0.44 -0.354 0.618 -0.157 0.178 -0.37 0.319 -0.629 0.427 -0.26 0.1 -0.574 0.149 -0.948 0.149 -0.389 0 -0.712 -0.046 -0.971 -0.141 -0.26 -0.095 -0.48 -0.212 -0.661 -0.349 l 0.436 -0.867 c 0.157 0.095 0.326 0.187 0.511 0.274 0.193 0.091 0.385 0.133 0.586 0.133 0.295 0 0.535 -0.071 0.712 -0.22 0.185 -0.154 0.279 -0.436 0.279 -0.842 l 0 -2.684 -1.919 0 0 -0.904 3.067 0 0 3.651"/>
  <path d="m 16.864 29.891 -0.29 -1.088 -1.634 0 -0.277 1.088 -1.268 0 c 0.509 -1.913 1.136 -3.757 1.743 -5.509 l 1.327 0 c 0.665 1.865 1.249 3.754 1.705 5.509 l -1.306 0 m -1.092 -4.442 c -0.263 0.757 -0.444 1.699 -0.605 2.446 l 1.201 0 c -0.145 -0.78 -0.374 -1.721 -0.596 -2.446"/>
  <path d="m 20.03 24.29 c 0.321 0 0.615 0.034 0.874 0.105 0.263 0.071 0.487 0.184 0.677 0.331 0.189 0.151 0.332 0.344 0.429 0.574 0.104 0.226 0.155 0.494 0.155 0.804 0 0.323 -0.066 0.634 -0.201 0.898 -0.135 0.26 -0.356 0.461 -0.665 0.599 0.506 0.732 0.878 1.499 1.241 2.29 l -1.179 0 c -0.289 -0.743 -0.707 -1.391 -1.082 -2.02 l -0.653 0 0 2.02 -1.052 0 0 -5.458 c 0.379 -0.093 0.76 -0.103 1.137 -0.134 0.124 -0.008 0.228 -0.008 0.321 -0.008 m 0.994 1.806 c 0 -0.293 -0.093 -0.507 -0.274 -0.645 -0.182 -0.134 -0.421 -0.205 -0.719 -0.205 -0.117 -0.003 -0.296 0.02 -0.405 0.029 l 0 1.682 0.312 0 c 0.383 0 0.661 -0.071 0.831 -0.214 0.17 -0.151 0.255 -0.379 0.255 -0.647"/>
 </g>
</svg>
